X: 120
T: No_47_Ca'wûno'ga_Song_(b).krn
%%abc-version 2.0
%%abcx-abcm2ps-target-version 5.9.1 (29 Sep 2008)
%%abc-creator hum2abc beta
%%abcx-conversion-date 2020/08/10 18:54:56
%%gracespace 0 6 6
%%humdrum-veritas 819475073
%%humdrum-veritas-data 745503305
%%linebreak <none>
%%barnumbers 0
L: 1/8
M: 3/4
%%staves {1 2}
V: 1 clef=bass
V: 2 clef=bass
K: A
[V:1] E3/E/ [I:setbarnb 1]| 
[V:2] z2 | 
[V:1] E2C2C3/E/- | 
[V:2] G,,G,, G,,G,, G,,G,, | 
[V:1] E>E-E2C3/C/ | 
[V:2] z6 | 
[V:1] C2A,2A,3/B,/- | 
[V:2] z6 | 
[V:1] B,>B,-B,2C3/C/ | 
[V:2] z6 | 
[V:1] C2A,2A,3/A,/- | 
[V:2] z6 | 
[V:1] A,>A,-A,2A,3/A,/ | 
[V:2] z6 | 
[V:1] A,2F,2F,3/A,/- ||  
[V:2] z6 ||  
[V:1] [M:2/4]A,>A,-A,2 | 
[V:2] [M:2/4]z4 | 
[V:1] CB, A,3/B,/- | 
[V:2] z4 | 
[V:1] B,>B,-!fermata!B,2 | 
[V:2] z4 | 
[V:1] CB, !wedge!A,3/A,/- | 
[V:2] z4 | 
[V:1] A,>A,-!fermata!A,2 | 
[V:2] z4 | 
[V:1] A,A, !wedge!F,3/A,/- | 
[V:2] z4 | 
[V:1] A,>A,!fermata!A,2 | 
[V:2] z4 | 
[V:1] B,B, !wedge!A,3/A,/- | 
[V:2] z4 | 
[V:1] A,>A,-A,2 |]  
[V:2] z4 |]  


